X:1
T:Spesso per entro al petto - Strozzi
T:James Gibb editions
T:#
%%score 1 { ( 2 3 ) | 4 }
L:1/8
Q:1/4=100
M:4/4
K:G
V:1 treble nm="Soprano"
V:2 treble nm="Midi_7"
V:3 treble 
V:4 bass 
V:1
"^Giacinto Andrea Cicognini\n(1606-51)""^Spesso per entro al petto""^Barbara Strozzi\n (1619-77)"!mf!"^andante" e2 cG A2 B2 | %1
w: Spes- so per en- tro~al|
w: Qual hor mi s'a- pre-|
w: I più so- lin- ghi~hor-|
 c2 GG (AG)(=FE) | D3 G E4 |[M:4/4] z2 z G A3 B | c3 A (B2 G)D | E"^,"E (A2- AG/A/ FD | %6
w: pet- to mi pas\- * sa un|no so che,|e non so|dir, s'e- gli~è o mar-|ti- re o * * * * *|
w: sen- ta di Clo\- * ri il|bel se- ren|mi na- sce|fo- co~in sen * che|pia- ce~in un * * * * *|
w: ro- ri fre- quen\- * to *|vo- lon- tier,|ma sen- to~un|mio pen- sier, * che|di- ce:~e do\- * * * * *|
 G4- GA/B/ c)B | (A/G/A/B/ A2) G4 | z2 z c d3 e | =f3 d (e2 c)G | AA (d2- dc/d/ BG | %11
w: * * * * * di-|let\- * * * * to,|e non so|dir, s'e- gli~è o mar-|ti- re o * * * * *|
w: * * * * * tor-|men\- * * * * ta,|mi na- sce~un|fo- co~in sen, * che|pia- ce~in un * * * * *|
w: * * * * * ve~è|Clo\- * * * * ri,|ma sen- to~un|mio pen- sier, * che|di- ce:~e do\- * * * * *|
 c4- cd/e/ =f)e | (d/c/d/e/ d2) c4 | z2 z!f! E G4 | z2 A2 _B2 (BA) | c2 (cd) (_B2 A)A | %16
w: * * * * * di-|let\- * * * * to.|Tel' hor|mi sen- to, mi|sen- to uc- ci\- * de-|
w: * * * * * tor-|men\- * * * * ta.|Mi sen-|to~il cor, il *|cor di\- * vi\- * de-|
w: * * * * * ve~è|Clo\- * * * * ri.|Hor chi|mi sa, mi *|sa de\- * ci\- * de-|
 A2 z A =F2 (EF/G/) | (=F E2) D D4 | z2 z!p! .D .E.F.G.A | .B>.A .G.d .c.B.A.B | %20
w: re da~in- co- gni\- * *|to * ri- gor;|sa- reb- be pur da|ri- de- re, che fos- se~il mal d'a-|
w: re tra~il gie- lo~e * *|tra * l'ar- dor;|||
w: re, che sia que\- * *|sto * fu- ror;|||
 .G2 z .G .A.B.c.d | .e>.d .c.g .=f.e.d.e | %22
w: mor, sa- reb- be pur da|ri- de- re, che fos- se~il mal d'a-|
w: ||
w: ||
 .c2 z[Q:1/4=98] .g[Q:1/4=96] .=f[Q:1/4=94].e[Q:1/4=92].d[Q:1/4=90].e |[Q:1/4=90] c4 z4 |] %24
w: mor, che fos- se~il mal d'a-|mor.|
w: ||
w: ||
V:2
!mf! [Gce]2 [EGc]2 [C=FA]2 [DFB]2 | [EGc]2 [CG]2 [C=FA]4 | [B,DG]4 E3 =F | %3
[M:4/4] G4 [C=FA]3 [DFB] | [EGc]3 [D^FA] [DGB]2 [B,DG]2 | [G,CE]2 [CEA]2 [DFA]4 | G4 G4 | %7
 [EA]2 [FA]2 [B,DG]4 | G2 [Gc]2 [DGd]3 [GBe] | [Ac=f]3 [GBd] [Gce]2 [EGc]2 | %10
 [C=FA]2 [FAd]2 [GBd]4 | c4 c4 | c4 [EGc]4 | z!f! !>![EGc]!>![Gce] z [CEG]4 | %14
 [DG]2 [CFA]2 [DG_B]4 | [EGc]4 [DG_B]2 [DFA]2- | [DFA]4 [A,D=F]2 [_B,DE]2 | %17
 [A,D=F]2 [A,^CE]2 [^F,A,D]4 | z2 z!p! .D .E.F.G.A | .B>.A .[EG].[Gd] .[Ec].[DB] .[FA]2 | %20
 .[B,DG]2 z .G .A.B.c.d | .e>.d .[Ac].[cg] .[A=f].[Ae] .[Bd]2 | %22
 .[EGc]2 z .[cg] .[A=f].[Ge] .[GBd]2 | [EGc]4 z4 |] %24
V:3
 x8 | x8 | x4 G,4 |[M:4/4] C2 B,C x4 | x8 | x8 | E2 DB, E2 D2 | x8 | C3 E x4 | x8 | x8 | %11
 A2 GE A2 G2 | A2 B2 x4 | x8 | x8 | x8 | x8 | x8 | x8 | D2 x6 | x8 | G2 x6 | x8 | x8 |] %24
V:4
 C,3 E, =F,E, D,2 | C,2 E,2 =F,G,A,F, | G,=F,G,G,, C,3 D, |[M:4/4] E,F,G,E, =F,E,F,D, | %4
 C,B,,C,D, G,,4 | C,2 A,,2 D,4- | D,C,/D,/ B,,G,, C,2 G,,2 | C,2 D,2 G,A,G,=F, | %8
 E,=F,E,C, B,A,B,G, | =F,E,F,G, C,4 | =F,2 D,2 G,4- | G,=F,/G,/ E,C, F,2 C,2 | =F,2 G,2 C,4 | %13
 C,6 C,2 | B,,2 A,,2 G,,4 | C,4 D,4 | D,6 G,2 | A,4 D,4 | z2 z!p! .B,, .C,.D,.E,.F, | %19
 .G,>.F, .E,.B,, .C,.G,, .D,2 | .G,,2 z .E, .=F,.G,.A,.B, | .C>.B, .A,.E, .=F,.C, .G,2 | %22
 .C,2 z .E, .=F,.C, .G,2 | C,4 z4 |] %24

